X:1
T:Title
%%score ( 1 2 ) { 3 | 4 }
L:1/8
Q:1/4=85
M:6/8
K:E
V:1 treble nm="Grand Piano, Soprano"
V:2 treble 
V:3 bass nm="Choir Pad, Child Divine"
V:4 bass 
V:1
 [CE]2 [CE] [^B,D]2 [CE] | [^B,F]2 [B,G] [CF]2 [CE] | [=DG]2 [DF] E2 E | [DF]>G[DA] [=DB]3 | %4
w: By~John~Frederick~Bridge * * *||||
 [Cc]2 [CE] [^B,D]2 [CE] | [^B,F]2 [B,G] [CF]2 [CE] | [EB]2 [EA] [DA]2 [EG] | [CG]2 [DF] E3 | %8
w: ||||
 E2 E E2 [EF] | [E=G]2 [EA] [DB]2 [EG] | =G2 G G2 [GB] | [G^B]2 [^E=d] [=Ee]3 | ^B2 B =B2 [EB] | %13
w: |||||
 [DB]>E[FB] [GB]2 [EG] | ^B2 B =B2 [EB] | [AB]>G[FB] B2- [=DB] | [Cc]2 [CE] [^B,=D]2 [CE] | %17
w: ||||
 [^B,F]2 G [CF]2 [CE] | [=DG]2 [DF] E2 E | [DF]>[EG][FA] [EB]3 | [^Ec]>FG A>B[=Gc] | %21
w: ||||
 [F=d]>=GA B>c[Ad] | [ce]>[B=d][Ac] .[FB]>E[=DG] | z3 A3 | [CA]6- | [CA]3 z3 |] %26
w: |||||
V:2
 x6 | x6 | x6 | x6 | x6 | x6 | x6 | x6 | x6 | x6 | x6 | x6 | x6 | x6 | x6 | z3 .E3 | x6 | x6 | x6 | %19
 x6 | x6 | x6 | z3 z .F2 | [CA]3 =D>CD | x6 | x6 |] %26
V:3
 A,2 G, F,2 E, | D,2 D, E,2 A, | A,2 A, A,2 A, | A,>G,F, A,2 G, | A,2 G, F,2 E, | D,2 E, E,2 A, | %6
 G,2 A, B,2 C | A,2 B, G,3 | E,2 E, E,2 F, | =G,2 E, F,2 G, | =G,2 G, G,2[K:treble] =D | %11
 ^B,2 =B, ^B,3 | ^B,2 B,[K:bass] =B,2 G, | F,>G,A, B,2 B, | ^B,2 B, =B,2 G, | C>[K:bass]B,A, G,3 | %16
 A,2 G, F,2 E, | D,2 D, E,2 A, | A,2 A, A,2 A, | A,>G,F, A,2 G, | G,2 C C>B,A, | A,2 =D D2 A, | %22
 A,>B,[K:treble]C =D>CB, | A,2[K:bass] G, F,>E,F, | E,6- | E,3 z3 |] %26
V:4
 A,,2 A,, A,,2 A,, | A,,2 A,, A,,2 A,, | =D,2 D, C,2 ^B,, | B,,2 B,, E,3 | A,,2 A,, A,,2 A,, | %5
 A,,2 A,, A,,2 A,, | C,2 ^B,, =B,,2 B,, | B,,2 B,, E,3 | z3 z2 E, | E,2 ^B,, =B,,2 E, | z3 z2 ^E, | %11
 E,2 =D, ^B,,3 | ^B,,2 B,, =B,,2 B,, | B,,2 B,, E,2 E, | ^B,,2 B,, =B,,2 B,, | B,,2 B,, E,3 | %16
 A,,2 A,, A,,2 A,, | A,,2 A,, A,,2 A,, | =D,2 D, C,2 ^B,, | B,,2 B,, E,3 | C,>D,^E, F,2 =E, | %21
 =D,>E,F, =G,2 ^E, | E,2 E, E,2 E, | A,,3 A,,3 | A,,6- | A,,3 z3 |] %26

